**harm	**harte	**silbe	**rhyme	**timestamp	**phrase	**leadinstrument	**kern
*M4/4	*M4/4	*	*	*	*	*	*
*	*	*	*	*	*	*	*
*	*	*	*	*	*	*	*
*B-:	*B-:	*	*	*	*	*	*B-:
*	*	*	*	*	*	*	*
*	*	*	*	*	*	*	*
1r;	N	.	.	0	.	r	1r;
=1	=1	=1	=1	=1	=1	=1	=1
*>Letter>A	*>Letter>A	*>Letter>A	*>Letter>A	*>Letter>A	*>Letter>A	*>Letter>A	*>Letter>A
*>Label>Verse	*>Label>Verse	*>Label>Verse	*>Label>Verse	*>Label>Verse	*>Label>Verse	*>Label>Verse	*>Label>Verse
1I	B-:maj	.	.	1.001	newline	voice	1B- 1dd 1ff
.	.	Come	.	.	.	.	.
.	.	on	.	.	.	.	.
.	.	ba-	.	.	.	.	.
.	.	-by	.	.	.	.	.
.	.	and	.	.	.	.	.
.	.	_	.	.	.	.	.
=2	=2	=2	=2	=2	=2	=2	=2
1IV	E-:maj	be	.	2.616	.	voice	1E- 1g 1b-
.	.	my	.	.	.	.	.
.	.	guest	A	.	.	.	.
.	.	_	.	.	.	.	.
.	.	.	.	.	.	.	.
=3	=3	=3	=3	=3	=3	=3	=3
1I	B-:maj	.	.	4.232	.	voice	1B- 1dd 1ff
.	.	come	.	.	.	.	.
.	.	join	.	.	.	.	.
.	.	the	.	.	.	.	.
.	.	par-	.	.	.	.	.
.	.	-ty	.	.	.	.	.
.	.	.	.	.	.	.	.
.	.	and	.	.	.	.	.
=4	=4	=4	=4	=4	=4	=4	=4
1V7	F:7	meet	.	5.847	.	voice	1F 1a 1cc 1ee-
.	.	the	.	.	.	.	.
.	.	_	.	.	.	.	.
.	.	rest	A	.	.	.	.
.	.	_	.	.	.	.	.
.	.	.	.	.	.	.	.
=5	=5	=5	=5	=5	=5	=5	=5
1I	B-:maj	.	.	7.463	newline	voice	1B- 1dd 1ff
.	.	ev-	.	.	.	.	.
.	.	-ery-	.	.	.	.	.
.	.	-thing	.	.	.	.	.
.	.	is	.	.	.	.	.
.	.	gon-	.	.	.	.	.
.	.	-na	.	.	.	.	.
=6	=6	=6	=6	=6	=6	=6	=6
1IV	E-:maj	be	.	9.083	.	voice	1E- 1g 1b-
.	.	all	.	.	.	.	.
.	.	right	B	.	.	.	.
.	.	_	.	.	.	.	.
.	.	.	.	.	.	.	.
.	.	so	.	.	.	.	.
=7	=7	=7	=7	=7	=7	=7	=7
2I	B-:maj	be	.	10.703	.	voice	2B- 2dd 2ff
.	.	my	.	.	.	.	.
2V7	F:7	guest	.	11.513	.	voice	2F 2a 2cc 2ee-
.	.	to	.	.	.	.	.
.	.	night	B	.	.	.	.
=8	=8	=8	=8	=8	=8	=8	=8
1I	B-:maj	_	.	12.322	.	voice	1B- 1dd 1ff
.	.	.	.	.	.	.	.
.	.	.	.	.	.	.	.
=9	=9	=9	=9	=9	=9	=9	=9
*>Letter>A	*>Letter>A	*>Letter>A	*>Letter>A	*>Letter>A	*>Letter>A	*>Letter>A	*>Letter>A
*>Label>Verse	*>Label>Verse	*>Label>Verse	*>Label>Verse	*>Label>Verse	*>Label>Verse	*>Label>Verse	*>Label>Verse
1I	B-:maj	.	.	13.942	newline	voice	1B- 1dd 1ff
.	.	We're	.	.	.	.	.
.	.	gon-	.	.	.	.	.
.	.	-na	.	.	.	.	.
.	.	dance	.	.	.	.	.
.	.	_	.	.	.	.	.
.	.	to	.	.	.	.	.
.	.	the	.	.	.	.	.
=10	=10	=10	=10	=10	=10	=10	=10
1IV	E-:maj	rock	.	15.566	.	voice	1E- 1g 1b-
.	.	and	.	.	.	.	.
.	.	roll	C	.	.	.	.
.	.	_	.	.	.	.	.
.	.	.	.	.	.	.	.
=11	=11	=11	=11	=11	=11	=11	=11
1I	B-:maj	.	.	17.19	.	voice	1B- 1dd 1ff
.	.	We're	.	.	.	.	.
.	.	gon-	.	.	.	.	.
.	.	-na	.	.	.	.	.
.	.	e-	.	.	.	.	.
.	.	-ven	.	.	.	.	.
.	.	.	.	.	.	.	.
=12	=12	=12	=12	=12	=12	=12	=12
1V7	F:7	do	.	18.813	.	voice	1F 1a 1cc 1ee-
.	.	the	.	.	.	.	.
.	.	stroll	C	.	.	.	.
.	.	.	.	.	.	.	.
=13	=13	=13	=13	=13	=13	=13	=13
1I	B-:maj	.	.	20.437	newline	voice	1B- 1dd 1ff
.	.	We're	.	.	.	.	.
.	.	gon-	.	.	.	.	.
.	.	-na	.	.	.	.	.
.	.	Lin-	.	.	.	.	.
.	.	-dy	.	.	.	.	.
.	.	Hop	.	.	.	.	.
.	.	and	.	.	.	.	.
=14	=14	=14	=14	=14	=14	=14	=14
1IV	E-:maj	Su-	.	22.049	.	voice	1E- 1g 1b-
.	.	-zy	.	.	.	.	.
.	.	Q	D	.	.	.	.
.	.	_	.	.	.	.	.
.	.	.	.	.	.	.	.
.	.	It's	.	.	.	.	.
.	.	a	.	.	.	.	.
=15	=15	=15	=15	=15	=15	=15	=15
1I	B-:maj	spec-	.	23.66	.	voice	1B- 1dd 1ff
.	.	-ail	.	.	.	.	.
.	.	par-	.	.	.	.	.
.	.	-ty	.	.	.	.	.
=16	=16	=16	=16	=16	=16	=16	=16
2V7	F:7	just	.	25.272	.	voice	2F 2a 2cc 2ee-
.	.	for	.	.	.	.	.
.	.	you	D	.	.	.	.
2I	B-:maj	_	.	26.077	.	voice	2B- 2dd 2ff
.	.	.	.	.	.	.	.
=17	=17	=17	=17	=17	=17	=17	=17
*>Letter>B	*>Letter>B	*>Letter>B	*>Letter>B	*>Letter>B	*>Letter>B	*>Letter>B	*>Letter>B
*>Label>Chorus	*>Label>Chorus	*>Label>Chorus	*>Label>Chorus	*>Label>Chorus	*>Label>Chorus	*>Label>Chorus	*>Label>Chorus
1IV	E-:maj	.	.	26.883	newline	voice	1E- 1g 1b-
.	.	My	.	.	.	.	.
.	.	.	.	.	.	.	.
=18	=18	=18	=18	=18	=18	=18	=18
1I	B-:maj	my	.	28.515	.	voice	1B- 1dd 1ff
.	.	oh	.	.	.	.	.
.	.	mine	E	.	.	.	.
.	.	_	.	.	.	.	.
.	.	.	.	.	.	.	.
=19	=19	=19	=19	=19	=19	=19	=19
1V7	F:7	.	.	30.147	.	voice	1F 1a 1cc 1ee-
.	.	gee	.	.	.	.	.
.	.	.	.	.	.	.	.
=20	=20	=20	=20	=20	=20	=20	=20
1I	B-:maj	you're	.	31.778	.	voice	1B- 1dd 1ff
.	.	so	.	.	.	.	.
.	.	fine	E	.	.	.	.
.	.	_	.	.	.	.	.
.	.	.	.	.	.	.	.
=21	=21	=21	=21	=21	=21	=21	=21
1IV	E-:maj	.	.	33.41	newline	voice	1E- 1g 1b-
.	.	Don't	.	.	.	.	.
.	.	.	.	.	.	.	.
=22	=22	=22	=22	=22	=22	=22	=22
1I	B-:maj	let	.	35.019	.	voice	1B- 1dd 1ff
.	.	me	.	.	.	.	.
.	.	down	F	.	.	.	.
.	.	_	.	.	.	.	.
.	.	.	.	.	.	.	.
=23	=23	=23	=23	=23	=23	=23	=23
1V7	F:7	.	.	36.627	.	voice	1F 1a 1cc 1ee-
.	.	I'm	.	.	.	.	.
.	.	the	.	.	.	.	.
.	.	king	.	.	.	.	.
.	.	but	.	.	.	.	.
.	.	you	.	.	.	.	.
.	.	can	.	.	.	.	.
=24	=24	=24	=24	=24	=24	=24	=24
1I	B-:maj	wear	.	38.236	.	voice	1B- 1dd 1ff
.	.	my	.	.	.	.	.
.	.	_	.	.	.	.	.
.	.	crown	F	.	.	.	.
.	.	_	.	.	.	.	.
.	.	.	.	.	.	.	.
=25	=25	=25	=25	=25	=25	=25	=25
*>Letter>A	*>Letter>A	*>Letter>A	*>Letter>A	*>Letter>A	*>Letter>A	*>Letter>A	*>Letter>A
*>Label>Verse	*>Label>Verse	*>Label>Verse	*>Label>Verse	*>Label>Verse	*>Label>Verse	*>Label>Verse	*>Label>Verse
1I	B-:maj	.	.	39.844	newline	voice	1B- 1dd 1ff
.	.	I'm	.	.	.	.	.
.	.	gon-	.	.	.	.	.
.	.	-na	.	.	.	.	.
.	.	sing	.	.	.	.	.
.	.	_	.	.	.	.	.
.	.	.	.	.	.	.	.
.	.	my	.	.	.	.	.
=26	=26	=26	=26	=26	=26	=26	=26
1IV	E-:maj	band	.	41.476	.	voice	1E- 1g 1b-
.	.	gon-	.	.	.	.	.
.	.	-na	.	.	.	.	.
.	.	play	G	.	.	.	.
.	.	_	.	.	.	.	.
.	.	.	.	.	.	.	.
=27	=27	=27	=27	=27	=27	=27	=27
1I	B-:maj	.	.	43.107	.	voice	1B- 1dd 1ff
.	.	I'm	.	.	.	.	.
.	.	gon-	.	.	.	.	.
.	.	-na	.	.	.	.	.
.	.	make	.	.	.	.	.
.	.	you	.	.	.	.	.
.	.	.	.	.	.	.	.
=28	=28	=28	=28	=28	=28	=28	=28
1V7	F:7	queen	.	44.739	.	voice	1F 1a 1cc 1ee-
.	.	for'a	.	.	.	.	.
.	.	day	G	.	.	.	.
.	.	_	.	.	.	.	.
.	.	.	.	.	.	.	.
=29	=29	=29	=29	=29	=29	=29	=29
1I	B-:maj	.	.	46.37	newline	voice	1B- 1dd 1ff
.	.	ev-	.	.	.	.	.
.	.	-ery-	.	.	.	.	.
.	.	-thing	.	.	.	.	.
.	.	is	.	.	.	.	.
.	.	gon-	.	.	.	.	.
.	.	-na	.	.	.	.	.
=30	=30	=30	=30	=30	=30	=30	=30
1IV	E-:maj	be	.	48.003	.	voice	1E- 1g 1b-
.	.	al-	.	.	.	.	.
.	.	-right	B	.	.	.	.
.	.	_	.	.	.	.	.
.	.	.	.	.	.	.	.
.	.	so	.	.	.	.	.
=31	=31	=31	=31	=31	=31	=31	=31
2I	B-:maj	be	.	49.637	.	voice	2B- 2dd 2ff
.	.	my	.	.	.	.	.
2V7	F:7	guest	.	50.453	.	voice	2F 2a 2cc 2ee-
.	.	to	.	.	.	.	.
.	.	night	B	.	.	.	.
=32	=32	=32	=32	=32	=32	=32	=32
1I	B-:maj	_	.	51.27	.	voice	1B- 1dd 1ff
.	.	.	.	.	.	.	.
.	.	.	.	.	.	.	.
=33	=33	=33	=33	=33	=33	=33	=33
*>Letter>A	*>Letter>A	*>Letter>A	*>Letter>A	*>Letter>A	*>Letter>A	*>Letter>A	*>Letter>A
*>Label>Instrumental	*>Label>Instrumental	*>Label>Instrumental	*>Label>Instrumental	*>Label>Instrumental	*>Label>Instrumental	*>Label>Instrumental	*>Label>Instrumental
1I	B-:maj	.	.	52.903	newline	voice	1B- 1dd 1ff
=34	=34	=34	=34	=34	=34	=34	=34
1IV	E-:maj	.	.	54.553	.	voice	1E- 1g 1b-
=35	=35	=35	=35	=35	=35	=35	=35
1V7	F:7	.	.	56.202	.	voice	1F 1a 1cc 1ee-
=36	=36	=36	=36	=36	=36	=36	=36
1I	B-:maj	.	.	57.852	.	voice	1B- 1dd 1ff
=37	=37	=37	=37	=37	=37	=37	=37
1I	B-:maj	.	.	59.502	newline	voice	1B- 1dd 1ff
=38	=38	=38	=38	=38	=38	=38	=38
1IV	E-:maj	.	.	61.131	.	voice	1E- 1g 1b-
=39	=39	=39	=39	=39	=39	=39	=39
1V7	F:7	.	.	62.76	.	voice	1F 1a 1cc 1ee-
=40	=40	=40	=40	=40	=40	=40	=40
1I	B-:maj	.	.	64.389	.	voice	1B- 1dd 1ff
=41	=41	=41	=41	=41	=41	=41	=41
1I	B-:maj	.	.	66.018	newline	voice	1B- 1dd 1ff
=42	=42	=42	=42	=42	=42	=42	=42
1IV	E-:maj	.	.	67.648	.	voice	1E- 1g 1b-
=43	=43	=43	=43	=43	=43	=43	=43
1V7	F:7	.	.	69.279	.	voice	1F 1a 1cc 1ee-
=44	=44	=44	=44	=44	=44	=44	=44
1I	B-:maj	.	.	70.91	.	voice	1B- 1dd 1ff
=45	=45	=45	=45	=45	=45	=45	=45
1I	B-:maj	.	.	72.54	newline	voice	1B- 1dd 1ff
=46	=46	=46	=46	=46	=46	=46	=46
1IV	E-:maj	.	.	74.198	.	voice	1E- 1g 1b-
=47	=47	=47	=47	=47	=47	=47	=47
1V7	F:7	.	.	75.856	.	voice	1F 1a 1cc 1ee-
=48	=48	=48	=48	=48	=48	=48	=48
1I	B-:maj	.	.	77.514	.	voice	1B- 1dd 1ff
=49	=49	=49	=49	=49	=49	=49	=49
*>Letter>B	*>Letter>B	*>Letter>B	*>Letter>B	*>Letter>B	*>Letter>B	*>Letter>B	*>Letter>B
*>Label>Chorus	*>Label>Chorus	*>Label>Chorus	*>Label>Chorus	*>Label>Chorus	*>Label>Chorus	*>Label>Chorus	*>Label>Chorus
1IV	E-:maj	.	.	79.171	newline	voice	1E- 1g 1b-
.	.	My	.	.	.	.	.
.	.	.	.	.	.	.	.
=50	=50	=50	=50	=50	=50	=50	=50
1I	B-:maj	my	.	80.799	.	voice	1B- 1dd 1ff
.	.	oh	.	.	.	.	.
.	.	mine	E	.	.	.	.
.	.	_	.	.	.	.	.
.	.	.	.	.	.	.	.
=51	=51	=51	=51	=51	=51	=51	=51
1V7	F:7	.	.	82.427	.	voice	1F 1a 1cc 1ee-
.	.	gee	.	.	.	.	.
.	.	.	.	.	.	.	.
=52	=52	=52	=52	=52	=52	=52	=52
1I	B-:maj	you're	.	84.055	.	voice	1B- 1dd 1ff
.	.	so	.	.	.	.	.
.	.	fine	E	.	.	.	.
.	.	_	.	.	.	.	.
.	.	.	.	.	.	.	.
=53	=53	=53	=53	=53	=53	=53	=53
1IV	E-:maj	.	.	85.682	newline	voice	1E- 1g 1b-
.	.	Don't	.	.	.	.	.
.	.	.	.	.	.	.	.
=54	=54	=54	=54	=54	=54	=54	=54
1I	B-:maj	let	.	87.326	.	voice	1B- 1dd 1ff
.	.	me	.	.	.	.	.
.	.	down	F	.	.	.	.
.	.	_	.	.	.	.	.
.	.	.	.	.	.	.	.
=55	=55	=55	=55	=55	=55	=55	=55
1V7	F:7	.	.	88.969	.	voice	1F 1a 1cc 1ee-
.	.	I'm	.	.	.	.	.
.	.	the	.	.	.	.	.
.	.	queen	.	.	.	.	.
.	.	but	.	.	.	.	.
.	.	you	.	.	.	.	.
.	.	can	.	.	.	.	.
=56	=56	=56	=56	=56	=56	=56	=56
1I	B-:maj	wear	.	90.612	.	voice	1B- 1dd 1ff
.	.	my	.	.	.	.	.
.	.	_	.	.	.	.	.
.	.	crown	F	.	.	.	.
.	.	_	.	.	.	.	.
.	.	.	.	.	.	.	.
=57	=57	=57	=57	=57	=57	=57	=57
*>Letter>A	*>Letter>A	*>Letter>A	*>Letter>A	*>Letter>A	*>Letter>A	*>Letter>A	*>Letter>A
*>Label>Verse	*>Label>Verse	*>Label>Verse	*>Label>Verse	*>Label>Verse	*>Label>Verse	*>Label>Verse	*>Label>Verse
1I	B-:maj	.	.	92.256	newline	voice	1B- 1dd 1ff
.	.	I'm	.	.	.	.	.
.	.	gon-	.	.	.	.	.
.	.	-na	.	.	.	.	.
.	.	sing	.	.	.	.	.
.	.	_	.	.	.	.	.
.	.	.	.	.	.	.	.
.	.	my	.	.	.	.	.
=58	=58	=58	=58	=58	=58	=58	=58
1IV	E-:maj	band	.	93.899	.	voice	1E- 1g 1b-
.	.	gon-	.	.	.	.	.
.	.	-na	.	.	.	.	.
.	.	play	G	.	.	.	.
.	.	_	.	.	.	.	.
.	.	.	.	.	.	.	.
=59	=59	=59	=59	=59	=59	=59	=59
1I	B-:maj	.	.	95.542	.	voice	1B- 1dd 1ff
.	.	I'm	.	.	.	.	.
.	.	gon-	.	.	.	.	.
.	.	-na	.	.	.	.	.
.	.	make	.	.	.	.	.
.	.	you	.	.	.	.	.
.	.	.	.	.	.	.	.
=60	=60	=60	=60	=60	=60	=60	=60
1V7	F:7	queen	.	97.186	.	voice	1F 1a 1cc 1ee-
.	.	for'a	.	.	.	.	.
.	.	day	G	.	.	.	.
.	.	_	.	.	.	.	.
.	.	.	.	.	.	.	.
=61	=61	=61	=61	=61	=61	=61	=61
1I	B-:maj	.	.	98.829	newline	voice	1B- 1dd 1ff
.	.	ev-	.	.	.	.	.
.	.	-ery-	.	.	.	.	.
.	.	-thing	.	.	.	.	.
.	.	is	.	.	.	.	.
.	.	gon-	.	.	.	.	.
.	.	-na	.	.	.	.	.
=62	=62	=62	=62	=62	=62	=62	=62
1IV	E-:maj	be	.	100.472	.	voice	1E- 1g 1b-
.	.	al-	.	.	.	.	.
.	.	-right	B	.	.	.	.
.	.	_	.	.	.	.	.
.	.	.	.	.	.	.	.
.	.	so	.	.	.	.	.
=63	=63	=63	=63	=63	=63	=63	=63
2I	B-:maj	be	.	102.114	.	voice	2B- 2dd 2ff
.	.	my	.	.	.	.	.
2V7	F:7	guest	.	102.936	.	voice	2F 2a 2cc 2ee-
.	.	to	.	.	.	.	.
.	.	night	B	.	.	.	.
=64	=64	=64	=64	=64	=64	=64	=64
1I	B-:maj	_	.	103.757	.	voice	1B- 1dd 1ff
.	.	.	.	.	.	.	.
.	.	.	.	.	.	.	.
=65	=65	=65	=65	=65	=65	=65	=65
*>Letter>A	*>Letter>A	*>Letter>A	*>Letter>A	*>Letter>A	*>Letter>A	*>Letter>A	*>Letter>A
*>Label>Instrumental	*>Label>Instrumental	*>Label>Instrumental	*>Label>Instrumental	*>Label>Instrumental	*>Label>Instrumental	*>Label>Instrumental	*>Label>Instrumental
1I	B-:maj	.	.	105.4	newline	voice	1B- 1dd 1ff
=66	=66	=66	=66	=66	=66	=66	=66
1IV	E-:maj	.	.	107.053	.	voice	1E- 1g 1b-
=67	=67	=67	=67	=67	=67	=67	=67
1V7	F:7	.	.	108.706	.	voice	1F 1a 1cc 1ee-
=68	=68	=68	=68	=68	=68	=68	=68
1I	B-:maj	.	.	110.359	.	voice	1B- 1dd 1ff
=69	=69	=69	=69	=69	=69	=69	=69
1I	B-:maj	.	.	112.012	newline	voice	1B- 1dd 1ff
=70	=70	=70	=70	=70	=70	=70	=70
1IV	E-:maj	.	.	113.676	.	voice	1E- 1g 1b-
=71	=71	=71	=71	=71	=71	=71	=71
1V7	F:7	.	.	115.34	.	voice	1F 1a 1cc 1ee-
=72	=72	=72	=72	=72	=72	=72	=72
1I	B-:maj	.	.	117.004	.	voice	1B- 1dd 1ff
=73	=73	=73	=73	=73	=73	=73	=73
1I	B-:maj	.	.	118.667	newline	voice	1B- 1dd 1ff
=74	=74	=74	=74	=74	=74	=74	=74
1IV	E-:maj	.	.	120.317	.	voice	1E- 1g 1b-
=75	=75	=75	=75	=75	=75	=75	=75
1V7	F:7	.	.	121.967	.	voice	1F 1a 1cc 1ee-
=76	=76	=76	=76	=76	=76	=76	=76
1I	B-:maj	.	.	123.617	.	voice	1B- 1dd 1ff
=77	=77	=77	=77	=77	=77	=77	=77
*>Label>>Fadeout	*>Label>>Fadeout	*>Label>>Fadeout	*>Label>>Fadeout	*>Label>>Fadeout	*>Label>>Fadeout	*>Label>>Fadeout	*>Label>>Fadeout
1I	B-:maj	.	.	125.267	newline	voice	1B- 1dd 1ff
=78	=78	=78	=78	=78	=78	=78	=78
1IV	E-:maj	.	.	126.93	.	voice	1E- 1g 1b-
=79	=79	=79	=79	=79	=79	=79	=79
1V7	F:7	.	.	128.592	.	voice	1F 1a 1cc 1ee-
=80	=80	=80	=80	=80	=80	=80	=80
1I	B-:maj	.	.	130.255	.	voice	1B- 1dd 1ff
=81	=81	=81	=81	=81	=81	=81	=81
1I	B-:maj	.	.	131.918	newline	voice	1B- 1dd 1ff
=82	=82	=82	=82	=82	=82	=82	=82
1IV	E-:maj	.	.	132.294	.	voice	1E- 1g 1b-
=83	=83	=83	=83	=83	=83	=83	=83
1V7	F:7	.	.	132.67	.	voice	1F 1a 1cc 1ee-
=84	=84	=84	=84	=84	=84	=84	=84
1I	B-:maj	.	.	133.046	.	voice	1B- 1dd 1ff
1r;	N	.	.	133.422	.	r	1r;
1r;	N	.	.	135.915	.	r	1r;
*-	*-	*-	*-	*-	*-	*-	*-
!!!BillboardChartDate: 1959/11/16
!!!BillboardPeak: 8
!!!BillboardWeeksOnChart: 14
!!!COC: Fats Domino
!!!EMD: The sections should be relabeled. It's an AABA form, not verse-chorus.-Nat
!!!ENC: Nathaniel Condit-Schultz
!!!EST: Awating manual error checking and editing.
!!!OTL: Be My Guest
!!!RDF**harte: Chris Harte's syntax, used by MIREX
!!!RDF**harmony: **recip + pitch class of root + harmonic quality
!!!RDF**leadinstrument: original McGill primary instrumentation annotation
!!!RDF**phrase: newline = linebreak in original McGill transcription
!!!RDF**timestamp: McGill audio timestamp in seconds
!!!RDT: 2017/01/12/
!!!SampleActualRank: 17
!!!SampleID#: 1072
!!!SampleTargetRank: 17
!!!MBID: a4ac2d7a-6f30-450d-b5a0-60fa1ba09790
